X:1
T:The Gentleman Soldier
C:Bledington
M:6/8
K:D
L:1/8
"A" A2G |"D" F2A AFA| "D" d2 e fed | "A" e2A c2e |[1 "D" d3 "A" A2G :|[2 "D" d3d2e||
"D" f2f fed | "G" g2g gfe | "D" d2d e2f | "A" A3 A2G |
"D" F2A AFA | "D" d2 e fed | "A" e2Ac2e | "D" d3 |]


%%textfont Times-Italic 12
%%begintext justify
arr. Alison S. 2019-10-27
%%endtext
